azure-patterns/svg-bug-grey.svg

<svg xmlns="http://www.w3.org/2000/svg" viewBox="0 0 29 32">
                                
                            
    <rect width="28.4017" height="31.0669" fill="black" fill-opacity="0"></rect>
    <path d="M23.4568 12.8694C24.1436 12.8905 24.7881 13.0355 25.3904 13.3042C25.9926 13.573 26.5157 13.934 26.9594 14.3872C27.4032 14.8404 27.7545 15.3701 28.0134 15.9761C28.2723 16.5822 28.4017 17.2278 28.4017 17.9129V20.9484H26.373V17.9129C26.373 17.5756 26.3175 17.2515 26.2066 16.9406C26.0957 16.6296 25.9424 16.345 25.747 16.0868C25.5515 15.8286 25.3164 15.6072 25.0417 15.4228C24.767 15.2383 24.4658 15.0987 24.1383 15.0038C24.2017 15.3095 24.2519 15.623 24.2888 15.9445C24.3258 16.266 24.3443 16.5848 24.3443 16.901V20.9484C24.3443 21.0222 24.339 21.0907 24.3285 21.1539C24.3179 21.2172 24.3073 21.2857 24.2968 21.3595L24.3919 21.2646C25.0258 21.897 25.5119 22.6243 25.85 23.4464C26.1881 24.2685 26.3572 25.1276 26.3572 26.0235C26.3572 26.9194 26.1881 27.7758 25.85 28.5926C25.5119 29.4095 25.0258 30.1341 24.3919 30.7665L22.9654 29.3436C23.4092 28.9009 23.7473 28.3976 23.9798 27.8337C24.2122 27.2698 24.3285 26.6717 24.3285 26.0393C24.3285 25.3226 24.1647 24.6269 23.8371 23.9523C23.5096 25.0063 23.0315 25.9708 22.4028 26.8456C21.7741 27.7204 21.0371 28.4688 20.1918 29.0906C19.3465 29.7125 18.4141 30.1973 17.3945 30.5452C16.3748 30.893 15.3103 31.0669 14.2009 31.0669C13.0914 31.0669 12.0269 30.893 11.0072 30.5452C9.98762 30.1973 9.05516 29.7125 8.20987 29.0906C7.36458 28.4688 6.62759 27.7204 5.99891 26.8456C5.37023 25.9708 4.89211 25.0063 4.56456 23.9523C4.23701 24.6269 4.07324 25.3226 4.07324 26.0393C4.07324 26.6717 4.18946 27.2698 4.42192 27.8337C4.65437 28.3976 4.99249 28.9009 5.43626 29.3436L4.00984 30.7665C3.37587 30.1341 2.88719 29.4095 2.54379 28.5926C2.20039 27.7758 2.02869 26.9194 2.02869 26.0235C2.02869 25.1276 2.20039 24.2685 2.54379 23.4464C2.88719 22.6243 3.37587 21.897 4.00984 21.2646L4.10493 21.3595C4.09437 21.2857 4.0838 21.2172 4.07324 21.1539C4.06267 21.0907 4.05739 21.0222 4.05739 20.9484V16.901C4.05739 16.5848 4.07588 16.266 4.11286 15.9445C4.14984 15.623 4.20003 15.3095 4.26343 15.0038C3.93588 15.0987 3.63474 15.2383 3.36002 15.4228C3.0853 15.6072 2.85021 15.8286 2.65474 16.0868C2.45926 16.345 2.30605 16.6296 2.19511 16.9406C2.08417 17.2515 2.02869 17.5756 2.02869 17.9129V20.9484H0V17.9129C0 17.2278 0.129435 16.5822 0.388305 15.9761C0.647174 15.3701 0.998497 14.8404 1.44227 14.3872C1.88605 13.934 2.40907 13.573 3.01134 13.3042C3.61361 13.0355 4.25814 12.8905 4.94494 12.8694C5.27249 12.1316 5.69513 11.4202 6.21287 10.7351C5.61061 10.6297 5.05324 10.4268 4.54079 10.1264C4.02833 9.826 3.58719 9.45446 3.21738 9.01178C2.84757 8.56909 2.557 8.07107 2.34568 7.51772C2.13435 6.96437 2.02869 6.38203 2.02869 5.7707V2.73516H4.05739V5.7707C4.05739 6.1923 4.13663 6.58756 4.29512 6.95646C4.45362 7.32536 4.67022 7.64684 4.94494 7.92088C5.21966 8.19492 5.54193 8.41099 5.91174 8.56909C6.28155 8.72719 6.67778 8.80625 7.10043 8.80625H8.11477V8.85368C8.61138 8.48477 9.11855 8.17384 9.63629 7.92088C9.4778 7.5836 9.35365 7.23314 9.26384 6.8695C9.17403 6.50587 9.12912 6.13961 9.12912 5.7707C9.12912 5.0329 9.29289 4.32144 9.62044 3.63634L7.40156 1.42292L8.82799 7.62988e-06L10.8408 2.00789C11.3163 1.59683 11.8367 1.27799 12.402 1.05138C12.9673 0.824769 13.5669 0.711462 14.2009 0.711462C14.8348 0.711462 15.4344 0.824769 15.9997 1.05138C16.565 1.27799 17.0854 1.59683 17.5609 2.00789L19.5737 7.62988e-06L21.0001 1.42292L18.7813 3.63634C19.1088 4.32144 19.2726 5.0329 19.2726 5.7707C19.2726 6.13961 19.2277 6.50587 19.1379 6.8695C19.0481 7.23314 18.9239 7.5836 18.7654 7.92088C19.0401 8.0579 19.3016 8.20283 19.5499 8.35566C19.7983 8.50849 20.0439 8.67449 20.2869 8.85368V8.80625H21.3013C21.7239 8.80625 22.1202 8.72719 22.49 8.56909C22.8598 8.41099 23.182 8.19492 23.4568 7.92088C23.7315 7.64684 23.9481 7.32536 24.1066 6.95646C24.2651 6.58756 24.3443 6.1923 24.3443 5.7707V2.73516H26.373V5.7707C26.373 6.38203 26.2674 6.96437 26.056 7.51772C25.8447 8.07107 25.5541 8.56909 25.1843 9.01178C24.8145 9.45446 24.3734 9.826 23.8609 10.1264C23.3485 10.4268 22.7911 10.6297 22.1888 10.7351C22.7066 11.4202 23.1292 12.1316 23.4568 12.8694ZM14.2009 2.73516C13.7782 2.73516 13.382 2.81421 13.0122 2.97231C12.6424 3.13041 12.3201 3.34648 12.0454 3.62053C11.7706 3.89457 11.554 4.21604 11.3956 4.58494C11.2371 4.95385 11.1578 5.3491 11.1578 5.7707C11.1578 6.29771 11.2846 6.77201 11.5382 7.19361C11.982 7.07767 12.4231 6.98545 12.8616 6.91694C13.3001 6.84842 13.7465 6.81417 14.2009 6.81417C14.6552 6.81417 15.1016 6.84842 15.5401 6.91694C15.9786 6.98545 16.4197 7.07767 16.8635 7.19361C17.1171 6.77201 17.2439 6.29771 17.2439 5.7707C17.2439 5.3491 17.1646 4.95385 17.0062 4.58494C16.8477 4.21604 16.6311 3.89457 16.3563 3.62053C16.0816 3.34648 15.7594 3.13041 15.3895 2.97231C15.0197 2.81421 14.6235 2.73516 14.2009 2.73516ZM22.3156 16.901C22.3156 15.8049 22.099 14.7667 21.6658 13.7864C21.2326 12.8062 20.6488 11.9472 19.9145 11.2094C19.1801 10.4716 18.3216 9.8866 17.339 9.45446C16.3563 9.02232 15.3103 8.80625 14.2009 8.80625C13.0914 8.80625 12.0454 9.02232 11.0627 9.45446C10.0801 9.8866 9.22157 10.4716 8.48723 11.2094C7.75288 11.9472 7.16911 12.8062 6.7359 13.7864C6.30268 14.7667 6.08608 15.8049 6.08608 16.901V20.9484C6.08608 22.0657 6.30004 23.1144 6.72797 24.0946C7.1559 25.0749 7.73703 25.9312 8.47138 26.6638C9.20572 27.3963 10.0642 27.976 11.0469 28.4029C12.0295 28.8298 13.0808 29.0432 14.2009 29.0432C15.3209 29.0432 16.3722 28.8298 17.3548 28.4029C18.3375 27.976 19.196 27.3963 19.9303 26.6638C20.6647 25.9312 21.2458 25.0749 21.6737 24.0946C22.1017 23.1144 22.3156 22.0657 22.3156 20.9484V16.901Z" fill="#505055"></path>
</svg>

<svg xmlns="http://www.w3.org/2000/svg" viewBox="0 0 29 32"><path fill="none" d="M0 0h28.402v31.067H0z"/><path d="M23.457 12.87a5.082 5.082 0 0 1 1.933.434c.603.269 1.126.63 1.57 1.083.443.453.794.983 1.053 1.59.26.605.389 1.25.389 1.936v3.035h-2.029v-3.035c0-.337-.056-.662-.166-.972a3.17 3.17 0 0 0-.46-.854 2.916 2.916 0 0 0-.705-.664 3.213 3.213 0 0 0-.904-.42c.064.306.114.62.15.941.038.322.056.64.056.957v4.047c0 .074-.005.143-.016.206a8.48 8.48 0 0 0-.031.206l.095-.095a6.6 6.6 0 0 1 1.458 2.181c.338.822.507 1.682.507 2.577a6.652 6.652 0 0 1-1.965 4.744l-1.427-1.423a4.584 4.584 0 0 0 1.363-3.305c0-.716-.163-1.412-.49-2.087a10.013 10.013 0 0 1-1.435 2.894 10.035 10.035 0 0 1-2.211 2.245 10.303 10.303 0 0 1-2.797 1.454 9.824 9.824 0 0 1-3.194.522 9.824 9.824 0 0 1-3.194-.522 10.303 10.303 0 0 1-2.797-1.454 10.034 10.034 0 0 1-2.211-2.245 10.014 10.014 0 0 1-1.434-2.894 4.726 4.726 0 0 0-.143 3.882c.232.564.57 1.067 1.014 1.51L4.01 30.766a6.725 6.725 0 0 1-1.466-2.173 6.563 6.563 0 0 1-.515-2.57 6.703 6.703 0 0 1 1.981-4.759l.095.095a9.006 9.006 0 0 0-.032-.205 1.248 1.248 0 0 1-.016-.206v-4.047c0-.316.019-.635.056-.957.037-.321.087-.635.15-.94a3.213 3.213 0 0 0-.903.419c-.275.184-.51.406-.705.664a3.17 3.17 0 0 0-.46.854c-.11.31-.166.635-.166.972v3.035H0v-3.035c0-.685.13-1.33.388-1.937a5.124 5.124 0 0 1 1.054-1.589 5.056 5.056 0 0 1 1.57-1.083 5.082 5.082 0 0 1 1.933-.435c.327-.737.75-1.449 1.268-2.134a5.01 5.01 0 0 1-2.995-1.723c-.37-.443-.661-.94-.872-1.494a4.855 4.855 0 0 1-.317-1.747V2.735h2.028v3.036c0 .421.08.817.238 1.185.159.37.375.69.65.965.275.274.597.49.967.648.37.158.766.237 1.188.237h1.015v.048a9.679 9.679 0 0 1 1.521-.933 5.653 5.653 0 0 1-.372-1.051 4.567 4.567 0 0 1-.135-1.1c0-.737.164-1.449.491-2.134L7.402 1.423 8.828 0l2.013 2.008a5.51 5.51 0 0 1 1.561-.957 4.789 4.789 0 0 1 1.799-.34c.634 0 1.233.114 1.799.34a5.51 5.51 0 0 1 1.56.957L19.575 0 21 1.423l-2.219 2.213c.328.685.492 1.397.492 2.135 0 .369-.045.735-.135 1.099-.09.363-.214.714-.373 1.05a10.075 10.075 0 0 1 1.522.934v-.048H21.3c.423 0 .82-.079 1.189-.237.37-.158.692-.374.967-.648.274-.274.491-.596.65-.965.158-.368.237-.764.237-1.185V2.735h2.029v3.036c0 .611-.106 1.193-.317 1.747a5.212 5.212 0 0 1-.872 1.494 5.008 5.008 0 0 1-2.995 1.723c.518.685.94 1.397 1.268 2.134zM14.2 2.734c-.423 0-.819.08-1.189.237a3.042 3.042 0 0 0-1.617 1.613 2.972 2.972 0 0 0-.237 1.186c0 .527.127 1.001.38 1.423.444-.116.885-.209 1.324-.277a8.662 8.662 0 0 1 1.339-.103c.454 0 .9.034 1.34.103.438.068.879.16 1.322.277.254-.422.38-.896.38-1.423 0-.422-.078-.817-.237-1.186a3.044 3.044 0 0 0-.65-.964 3.052 3.052 0 0 0-2.155-.886zm8.115 14.166a7.62 7.62 0 0 0-.65-3.115 8.325 8.325 0 0 0-4.327-4.332 7.71 7.71 0 0 0-3.138-.648 7.71 7.71 0 0 0-3.138.648 8.324 8.324 0 0 0-2.576 1.755 8.47 8.47 0 0 0-1.751 2.577 7.62 7.62 0 0 0-.65 3.115v4.047c0 1.118.214 2.166.642 3.147a8.257 8.257 0 0 0 1.743 2.569 8.28 8.28 0 0 0 2.576 1.739c.982.427 2.034.64 3.154.64s2.171-.213 3.154-.64a8.28 8.28 0 0 0 2.575-1.74 8.256 8.256 0 0 0 1.744-2.568c.428-.98.642-2.03.642-3.147v-4.047z" fill="#505055"/></svg>
